X: 1445
T: Mickey By The Fireside   #2
R: reel
B: O'Neill's 1850 #1445
Z: Bob Safranek, rjs@gsp.org
M: C|
L: 1/8
K: D
|: d2dB AFAB | d2dB gfec | d2(dB) ADFA |1 gfed cABc :|2 gfed cdef |]
|: d2(ad) fdad | d2(ad) [1 gfec | d2(ad) fdad | cBAB cdef :|[2 cdef | gbaf gefd | edcB ABcA |]
